;FLAVOR:Marlin
;TIME:18335
;Filament used: 12.2182m
;Layer height: 0.2
;MINX:80.95
;MINY:27.2
;MINZ:0.2
;MAXX:154.05
;MAXY:207.8
;MAXZ:40
;Generated with Cura_SteamEngine 4.9.1
M140 S50
M105
M190 S50
M104 S200
M105
M109 S200
M82 ;absolute extrusion mode
; Ender 3 Custom Start G-code
G92 E0 ; Reset Extruder
G28 ; Home all axes
G1 Z2.0 F3000 ; Move Z Axis up little to prevent scratching of Heat Bed
G1 X0.1 Y20 Z0.3 F5000.0 ; Move to start position
G1 X0.1 Y200.0 Z0.3 F1500.0 E15 ; Draw the first line
G1 X0.4 Y200.0 Z0.3 F5000.0 ; Move to side a little
G1 X0.4 Y20 Z0.3 F1500.0 E30 ; Draw the second line
G92 E0 ; Reset Extruder
G1 Z2.0 F3000 ; Move Z Axis up little to prevent scratching of Heat Bed
G1 X5 Y20 Z0.3 F5000.0 ; Move over to prevent blob squish
G92 E0
G92 E0
G1 F2700 E-5
;LAYER_COUNT:200
;LAYER:0
M107
G0 F6000 X81.581 Y31.926 Z0.2
;TYPE:SKIRT
G1 F2700 E0
G1 F1200 X81.929 Y31.217 E0.02627
G1 X82.347 Y30.546 E0.05256
G1 X82.83 Y29.922 E0.07881
G1 X83.373 Y29.349 E0.10506
G1 X83.972 Y28.834 E0.13134
G1 X84.62 Y28.383 E0.1576
G1 X85.311 Y27.999 E0.18389
G1 X86.036 Y27.687 E0.21014
G1 X86.789 Y27.45 E0.2364
G1 X87.563 Y27.291 E0.26268
G1 X88.348 Y27.21 E0.28893
G1 X88.75 Y27.2 E0.3023
G1 X146.25 Y27.2 E2.21476
G1 X147.039 Y27.24 E2.24103
G1 X147.819 Y27.359 E2.26728
G1 X148.584 Y27.557 E2.29356
G1 X149.324 Y27.831 E2.31981
G1 X150.033 Y28.179 E2.34607
G1 X150.704 Y28.597 E2.37237
G1 X151.328 Y29.08 E2.39861
G1 X151.901 Y29.623 E2.42487
G1 X152.416 Y30.222 E2.45114
G1 X152.867 Y30.87 E2.4774
G1 X153.251 Y31.561 E2.5037
G1 X153.563 Y32.286 E2.52995
G1 X153.8 Y33.039 E2.5562
G1 X153.959 Y33.813 E2.58248
G1 X154.04 Y34.598 E2.60873
G1 X154.05 Y35 E2.62211
G1 X154.05 Y200 E8.11003
G1 X154.01 Y200.789 E8.13631
G1 X153.891 Y201.569 E8.16255
G1 X153.693 Y202.334 E8.18883
G1 X153.419 Y203.074 E8.21508
G1 X153.071 Y203.783 E8.24134
G1 X152.653 Y204.454 E8.26764
G1 X152.17 Y205.078 E8.29388
G1 X151.627 Y205.651 E8.32014
G1 X151.028 Y206.166 E8.34641
G1 X150.38 Y206.617 E8.37267
G1 X149.689 Y207.001 E8.39897
G1 X148.964 Y207.313 E8.42522
G1 X148.211 Y207.55 E8.45147
G1 X147.437 Y207.709 E8.47775
G1 X146.652 Y207.79 E8.504
G1 X146.25 Y207.8 E8.51738
G1 X88.75 Y207.8 E10.42983
G1 X87.961 Y207.76 E10.45611
G1 X87.181 Y207.641 E10.48235
G1 X86.416 Y207.443 E10.50864
G1 X85.676 Y207.169 E10.53488
G1 X84.967 Y206.821 E10.56115
G1 X84.296 Y206.403 E10.58744
G1 X83.672 Y205.92 E10.61369
G1 X83.099 Y205.377 E10.63995
G1 X82.584 Y204.778 E10.66622
G1 X82.133 Y204.13 E10.69248
G1 X81.749 Y203.439 E10.71877
G1 X81.437 Y202.714 E10.74502
G1 X81.2 Y201.961 E10.77128
G1 X81.041 Y201.187 E10.79756
G1 X80.96 Y200.402 E10.82381
G1 X80.95 Y200 E10.83718
G1 X80.95 Y35 E16.32511
G1 X80.99 Y34.211 E16.35138
G1 X81.109 Y33.431 E16.37762
G1 X81.307 Y32.666 E16.40391
G1 X81.581 Y31.926 E16.43015
G0 F6000 X81.981 Y32.01
G1 F1200 X82.328 Y31.324 E16.45572
G1 X82.744 Y30.677 E16.48131
G1 X83.225 Y30.077 E16.50688
G1 X83.766 Y29.53 E16.53247
G1 X84.361 Y29.042 E16.55807
G1 X85.003 Y28.619 E16.58364
G1 X85.686 Y28.264 E16.60924
G1 X86.401 Y27.983 E16.63479
G1 X87.143 Y27.777 E16.6604
G1 X87.901 Y27.649 E16.68597
G1 X88.75 Y27.6 E16.71426
G1 X146.25 Y27.6 E18.62671
G1 X147.018 Y27.64 E18.65229
G1 X147.778 Y27.759 E18.67788
G1 X148.521 Y27.957 E18.70345
G1 X149.24 Y28.231 E18.72904
G1 X149.926 Y28.578 E18.75461
G1 X150.573 Y28.994 E18.7802
G1 X151.173 Y29.475 E18.80577
G1 X151.72 Y30.016 E18.83136
G1 X152.208 Y30.611 E18.85696
G1 X152.631 Y31.253 E18.88253
G1 X152.986 Y31.936 E18.90813
G1 X153.267 Y32.651 E18.93368
G1 X153.473 Y33.393 E18.95929
G1 X153.601 Y34.151 E18.98486
G1 X153.65 Y35 E19.01315
G1 X153.65 Y200 E24.50107
G1 X153.61 Y200.768 E24.52665
G1 X153.491 Y201.528 E24.55223
G1 X153.293 Y202.271 E24.57781
G1 X153.019 Y202.99 E24.6034
G1 X152.672 Y203.676 E24.62897
G1 X152.256 Y204.323 E24.65455
G1 X151.775 Y204.923 E24.68013
G1 X151.234 Y205.47 E24.70572
G1 X150.639 Y205.958 E24.73131
G1 X149.997 Y206.381 E24.75688
G1 X149.314 Y206.736 E24.78249
G1 X148.599 Y207.017 E24.80804
G1 X147.857 Y207.223 E24.83365
G1 X147.099 Y207.351 E24.85922
G1 X146.25 Y207.4 E24.8875
G1 X88.75 Y207.4 E26.79996
G1 X87.982 Y207.36 E26.82554
G1 X87.222 Y207.241 E26.85112
G1 X86.479 Y207.043 E26.8767
G1 X85.76 Y206.769 E26.90229
G1 X85.074 Y206.422 E26.92786
G1 X84.427 Y206.006 E26.95344
G1 X83.827 Y205.525 E26.97902
G1 X83.28 Y204.984 E27.00461
G1 X82.792 Y204.389 E27.0302
G1 X82.369 Y203.747 E27.05578
G1 X82.014 Y203.064 E27.08138
G1 X81.733 Y202.349 E27.10693
G1 X81.527 Y201.607 E27.13254
G1 X81.399 Y200.849 E27.15811
G1 X81.35 Y200 E27.18639
G1 X81.35 Y35 E32.67432
G1 X81.39 Y34.232 E32.6999
G1 X81.509 Y33.472 E32.72548
G1 X81.707 Y32.729 E32.75106
G1 X81.981 Y32.01 E32.77665
G0 F6000 X82.38 Y32.097
G1 F1200 X82.727 Y31.434 E32.80154
G1 X83.142 Y30.811 E32.82643
G1 X83.621 Y30.237 E32.8513
G1 X84.158 Y29.716 E32.87618
G1 X84.748 Y29.257 E32.90105
G1 X85.384 Y28.862 E32.92595
G1 X86.058 Y28.538 E32.95082
G1 X86.763 Y28.288 E32.9757
G1 X87.491 Y28.114 E33.0006
G1 X88.233 Y28.019 E33.02548
G1 X88.75 Y28 E33.04268
G1 X146.25 Y28 E34.95514
G1 X146.997 Y28.04 E34.98002
G1 X147.735 Y28.159 E35.00488
G1 X148.457 Y28.357 E35.02979
G1 X149.153 Y28.63 E35.05465
G1 X149.816 Y28.977 E35.07954
G1 X150.439 Y29.392 E35.10444
G1 X151.013 Y29.871 E35.1293
G1 X151.534 Y30.408 E35.15419
G1 X151.993 Y30.998 E35.17905
G1 X152.388 Y31.634 E35.20395
G1 X152.712 Y32.308 E35.22883
G1 X152.962 Y33.013 E35.2537
G1 X153.136 Y33.741 E35.2786
G1 X153.231 Y34.483 E35.30348
G1 X153.25 Y35 E35.32069
G1 X153.25 Y200 E40.80861
G1 X153.21 Y200.747 E40.83349
G1 X153.091 Y201.485 E40.85835
G1 X152.893 Y202.207 E40.88325
G1 X152.62 Y202.903 E40.90812
G1 X152.273 Y203.566 E40.93301
G1 X151.858 Y204.189 E40.95791
G1 X151.379 Y204.763 E40.98277
G1 X150.842 Y205.284 E41.00766
G1 X150.252 Y205.743 E41.03252
G1 X149.616 Y206.138 E41.05742
G1 X148.942 Y206.462 E41.08229
G1 X148.237 Y206.712 E41.10717
G1 X147.509 Y206.886 E41.13207
G1 X146.767 Y206.981 E41.15695
G1 X146.25 Y207 E41.17416
G1 X88.75 Y207 E43.08661
G1 X88.003 Y206.96 E43.1115
G1 X87.265 Y206.841 E43.13636
G1 X86.543 Y206.643 E43.16126
G1 X85.847 Y206.37 E43.18613
G1 X85.184 Y206.023 E43.21101
G1 X84.561 Y205.608 E43.23591
G1 X83.987 Y205.129 E43.26078
G1 X83.466 Y204.592 E43.28566
G1 X83.007 Y204.002 E43.31053
G1 X82.612 Y203.366 E43.33543
G1 X82.288 Y202.692 E43.3603
G1 X82.038 Y201.987 E43.38518
G1 X81.864 Y201.259 E43.41007
G1 X81.769 Y200.517 E43.43495
G1 X81.75 Y200 E43.45216
G1 X81.75 Y35 E48.94008
G1 X81.79 Y34.253 E48.96496
G1 X81.909 Y33.515 E48.98983
G1 X82.107 Y32.793 E49.01473
G1 X82.38 Y32.097 E49.03959
G0 F6000 X82.78 Y32.186
G1 F1200 X83.125 Y31.547 E49.06375
G1 X83.539 Y30.95 E49.08791
G1 X84.015 Y30.402 E49.11205
G1 X84.549 Y29.909 E49.13623
G1 X85.134 Y29.479 E49.16037
G1 X85.763 Y29.115 E49.18454
G1 X86.428 Y28.822 E49.20871
G1 X87.121 Y28.604 E49.23288
G1 X87.833 Y28.464 E49.25701
G1 X88.75 Y28.4 E49.28759
G1 X146.25 Y28.4 E51.20004
G1 X146.975 Y28.44 E51.22419
G1 X147.692 Y28.559 E51.24837
G1 X148.391 Y28.757 E51.27253
G1 X149.064 Y29.03 E51.29669
G1 X149.703 Y29.375 E51.32084
G1 X150.3 Y29.789 E51.345
G1 X150.848 Y30.265 E51.36915
G1 X151.341 Y30.799 E51.39332
G1 X151.771 Y31.384 E51.41747
G1 X152.135 Y32.013 E51.44164
G1 X152.428 Y32.678 E51.46581
G1 X152.646 Y33.371 E51.48997
G1 X152.786 Y34.083 E51.5141
G1 X152.85 Y35 E51.54468
G1 X152.85 Y200 E57.0326
G1 X152.81 Y200.725 E57.05675
G1 X152.691 Y201.442 E57.08092
G1 X152.493 Y202.141 E57.10509
G1 X152.22 Y202.814 E57.12924
G1 X151.875 Y203.453 E57.1534
G1 X151.461 Y204.05 E57.17756
G1 X150.985 Y204.598 E57.2017
G1 X150.451 Y205.091 E57.22588
G1 X149.866 Y205.521 E57.25002
G1 X149.237 Y205.885 E57.27419
G1 X148.572 Y206.178 E57.29836
G1 X147.879 Y206.396 E57.32253
G1 X147.167 Y206.536 E57.34666
G1 X146.25 Y206.6 E57.37724
G1 X88.75 Y206.6 E59.28969
G1 X88.025 Y206.56 E59.31384
G1 X87.308 Y206.441 E59.33802
G1 X86.609 Y206.243 E59.36218
G1 X85.936 Y205.97 E59.38634
G1 X85.297 Y205.625 E59.41049
G1 X84.7 Y205.211 E59.43465
G1 X84.152 Y204.735 E59.4588
G1 X83.659 Y204.201 E59.48297
G1 X83.229 Y203.616 E59.50712
G1 X82.865 Y202.987 E59.53129
G1 X82.572 Y202.322 E59.55546
G1 X82.354 Y201.629 E59.57962
G1 X82.214 Y200.917 E59.60375
G1 X82.15 Y200 E59.63433
G1 X82.15 Y35 E65.12225
G1 X82.19 Y34.275 E65.1464
G1 X82.309 Y33.558 E65.17057
G1 X82.507 Y32.859 E65.19474
G1 X82.78 Y32.186 E65.21889
G0 F6000 X83.179 Y32.279
G1 F1200 X83.524 Y31.665 E65.24232
G1 X83.935 Y31.094 E65.26572
G1 X84.409 Y30.573 E65.28915
G1 X84.939 Y30.109 E65.31257
G1 X85.518 Y29.709 E65.33598
G1 X86.139 Y29.377 E65.3594
G1 X86.793 Y29.117 E65.38281
G1 X87.473 Y28.933 E65.40624
G1 X88.169 Y28.827 E65.42966
G1 X88.75 Y28.8 E65.449
G1 X146.25 Y28.8 E67.36146
G1 X146.953 Y28.84 E67.38488
G1 X147.647 Y28.959 E67.4083
G1 X148.322 Y29.157 E67.43169
G1 X148.971 Y29.429 E67.4551
G1 X149.585 Y29.774 E67.47852
G1 X150.156 Y30.185 E67.50192
G1 X150.677 Y30.659 E67.52535
G1 X151.141 Y31.189 E67.54878
G1 X151.541 Y31.768 E67.57219
G1 X151.873 Y32.389 E67.59561
G1 X152.133 Y33.043 E67.61901
G1 X152.317 Y33.723 E67.64244
G1 X152.423 Y34.419 E67.66586
G1 X152.45 Y35 E67.68521
G1 X152.45 Y200 E73.17313
G1 X152.41 Y200.703 E73.19655
G1 X152.291 Y201.397 E73.21997
G1 X152.093 Y202.072 E73.24336
G1 X151.821 Y202.721 E73.26677
G1 X151.476 Y203.335 E73.29019
G1 X151.065 Y203.906 E73.31359
G1 X150.591 Y204.427 E73.33702
G1 X150.061 Y204.891 E73.36045
G1 X149.482 Y205.291 E73.38385
G1 X148.861 Y205.623 E73.40728
G1 X148.207 Y205.883 E73.43068
G1 X147.527 Y206.067 E73.45411
G1 X146.831 Y206.173 E73.47753
G1 X146.25 Y206.2 E73.49688
G1 X88.75 Y206.2 E75.40933
G1 X88.047 Y206.16 E75.43275
G1 X87.353 Y206.041 E75.45617
G1 X86.678 Y205.843 E75.47957
G1 X86.029 Y205.571 E75.50297
G1 X85.415 Y205.226 E75.5264
G1 X84.844 Y204.815 E75.5498
G1 X84.323 Y204.341 E75.57322
G1 X83.859 Y203.811 E75.59665
G1 X83.459 Y203.232 E75.62006
G1 X83.127 Y202.611 E75.64348
G1 X82.867 Y201.957 E75.66689
G1 X82.683 Y201.277 E75.69032
G1 X82.577 Y200.581 E75.71374
G1 X82.55 Y200 E75.73308
G1 X82.55 Y35 E81.221
G1 X82.59 Y34.297 E81.24442
G1 X82.709 Y33.603 E81.26784
G1 X82.907 Y32.928 E81.29124
G1 X83.179 Y32.279 E81.31464
G0 F6000 X83.306 Y32.998
G1 F1200 X83.578 Y32.374 E81.33728
G1 X83.922 Y31.786 E81.35994
G1 X84.332 Y31.242 E81.3826
G1 X84.803 Y30.751 E81.40523
G1 X85.328 Y30.317 E81.42788
G1 X85.9 Y29.948 E81.45052
G1 X86.512 Y29.649 E81.47318
G1 X87.154 Y29.424 E81.4958
G1 X87.819 Y29.275 E81.51847
G1 X88.75 Y29.2 E81.54954
G1 X146.25 Y29.2 E83.46199
G1 X146.93 Y29.24 E83.48465
G1 X147.6 Y29.359 E83.50728
G1 X148.252 Y29.556 E83.52994
G1 X148.876 Y29.828 E83.55258
G1 X149.464 Y30.172 E83.57524
G1 X150.008 Y30.582 E83.59789
G1 X150.499 Y31.053 E83.62052
G1 X150.933 Y31.578 E83.64318
G1 X151.302 Y32.15 E83.66582
G1 X151.601 Y32.762 E83.68847
G1 X151.826 Y33.404 E83.7111
G1 X151.975 Y34.069 E83.73376
G1 X152.05 Y35 E83.76483
G1 X152.05 Y200 E89.25275
G1 X152.01 Y200.68 E89.27541
G1 X151.891 Y201.35 E89.29804
G1 X151.694 Y202.002 E89.3207
G1 X151.422 Y202.626 E89.34334
G1 X151.078 Y203.214 E89.36599
G1 X150.668 Y203.758 E89.38865
G1 X150.197 Y204.249 E89.41128
G1 X149.672 Y204.683 E89.43394
G1 X149.1 Y205.052 E89.45658
G1 X148.488 Y205.351 E89.47923
G1 X147.846 Y205.576 E89.50186
G1 X147.181 Y205.725 E89.52452
G1 X146.25 Y205.8 E89.55559
G1 X88.75 Y205.8 E91.46805
G1 X88.07 Y205.76 E91.4907
G1 X87.4 Y205.641 E91.51334
G1 X86.748 Y205.444 E91.53599
G1 X86.124 Y205.172 E91.55863
G1 X85.536 Y204.828 E91.58129
G1 X84.992 Y204.418 E91.60394
G1 X84.501 Y203.947 E91.62657
G1 X84.067 Y203.422 E91.64923
G1 X83.698 Y202.85 E91.67187
G1 X83.399 Y202.238 E91.69452
G1 X83.174 Y201.596 E91.71715
G1 X83.025 Y200.931 E91.73982
G1 X82.95 Y200 E91.77088
G1 X82.95 Y35 E97.25881
G1 X82.99 Y34.32 E97.28146
G1 X83.109 Y33.65 E97.30409
G1 X83.306 Y32.998 E97.32675
G0 F6000 X83.706 Y33.071
G1 F1200 X83.978 Y32.473 E97.3486
G1 X84.32 Y31.912 E97.37045
G1 X84.728 Y31.397 E97.3923
G1 X85.195 Y30.935 E97.41415
G1 X85.715 Y30.534 E97.43599
G1 X86.279 Y30.198 E97.45783
G1 X86.881 Y29.934 E97.47969
G1 X87.51 Y29.744 E97.50155
G1 X88.157 Y29.633 E97.52338
G1 X88.75 Y29.6 E97.54313
G1 X146.25 Y29.6 E99.45559
G1 X146.906 Y29.64 E99.47745
G1 X147.552 Y29.759 E99.4993
G1 X148.179 Y29.956 E99.52116
G1 X148.777 Y30.228 E99.54301
G1 X149.338 Y30.57 E99.56486
G1 X149.853 Y30.978 E99.58671
G1 X150.315 Y31.445 E99.60856
G1 X150.716 Y31.965 E99.6304
G1 X151.052 Y32.529 E99.65224
G1 X151.316 Y33.131 E99.6741
G1 X151.506 Y33.76 E99.69596
G1 X151.617 Y34.407 E99.71779
G1 X151.65 Y35 E99.73754
G1 X151.65 Y200 E105.22547
G1 X151.61 Y200.656 E105.24733
G1 X151.491 Y201.302 E105.26917
G1 X151.294 Y201.929 E105.29103
G1 X151.022 Y202.527 E105.31288
G1 X150.68 Y203.088 E105.33473
G1 X150.272 Y203.603 E105.35659
G1 X149.805 Y204.065 E105.37844
G1 X149.285 Y204.466 E105.40028
G1 X148.721 Y204.802 E105.42211
G1 X148.119 Y205.066 E105.44398
G1 X147.49 Y205.256 E105.46583
G1 X146.843 Y205.367 E105.48766
G1 X146.25 Y205.4 E105.50742
G1 X88.75 Y205.4 E107.41988
G1 X88.094 Y205.36 E107.44173
G1 X87.448 Y205.241 E107.46358
G1 X86.821 Y205.044 E107.48544
G1 X86.223 Y204.772 E107.50729
G1 X85.662 Y204.43 E107.52914
G1 X85.147 Y204.022 E107.551
G1 X84.685 Y203.555 E107.57285
G1 X84.284 Y203.035 E107.59469
G1 X83.948 Y202.471 E107.61652
G1 X83.684 Y201.869 E107.63839
G1 X83.494 Y201.24 E107.66024
G1 X83.383 Y200.593 E107.68207
G1 X83.35 Y200 E107.70183
G1 X83.35 Y35 E113.18975
G1 X83.39 Y34.344 E113.21161
G1 X83.509 Y33.698 E113.23346
G1 X83.706 Y33.071 E113.25532
G0 F6000 X84.106 Y33.148
G1 F1200 X84.377 Y32.576 E113.27637
G1 X84.717 Y32.044 E113.29737
G1 X85.123 Y31.559 E113.3184
G1 X85.586 Y31.129 E113.33942
G1 X86.1 Y30.76 E113.36047
G1 X86.656 Y30.46 E113.38148
G1 X87.245 Y30.232 E113.40248
G1 X87.859 Y30.08 E113.42352
G1 X88.75 Y30 E113.45328
G1 X146.25 Y30 E115.36573
G1 X146.881 Y30.04 E115.38676
G1 X147.502 Y30.159 E115.40779
G1 X148.102 Y30.356 E115.4288
G1 X148.674 Y30.627 E115.44985
G1 X149.206 Y30.967 E115.47085
G1 X149.691 Y31.373 E115.49189
G1 X150.121 Y31.836 E115.5129
G1 X150.49 Y32.35 E115.53395
G1 X150.79 Y32.906 E115.55496
G1 X151.018 Y33.495 E115.57597
G1 X151.17 Y34.109 E115.59701
G1 X151.25 Y35 E115.62676
G1 X151.25 Y200 E121.11468
G1 X151.21 Y200.631 E121.13571
G1 X151.091 Y201.252 E121.15674
G1 X150.894 Y201.852 E121.17775
G1 X150.623 Y202.424 E121.1988
G1 X150.283 Y202.956 E121.2198
G1 X149.877 Y203.441 E121.24083
G1 X149.414 Y203.871 E121.26185
G1 X148.9 Y204.24 E121.2829
G1 X148.344 Y204.54 E121.30391
G1 X147.755 Y204.768 E121.32492
G1 X147.141 Y204.92 E121.34595
G1 X146.25 Y205 E121.37571
G1 X88.75 Y205 E123.28817
G1 X88.119 Y204.96 E123.30919
G1 X87.498 Y204.841 E123.33023
G1 X86.898 Y204.644 E123.35123
G1 X86.326 Y204.373 E123.37228
G1 X85.794 Y204.033 E123.39328
G1 X85.309 Y203.627 E123.41432
G1 X84.879 Y203.164 E123.43533
G1 X84.51 Y202.65 E123.45638
G1 X84.21 Y202.094 E123.47739
G1 X83.982 Y201.505 E123.4984
G1 X83.83 Y200.891 E123.51944
G1 X83.75 Y200 E123.54919
G1 X83.75 Y35 E129.03711
G1 X83.79 Y34.369 E129.05814
G1 X83.909 Y33.748 E129.07917
G1 X84.106 Y33.148 E129.10018
G0 F6000 X84.505 Y33.227
G1 F1200 X84.776 Y32.684 E129.12036
G1 X85.115 Y32.181 E129.14054
G1 X85.517 Y31.728 E129.16068
G1 X85.975 Y31.331 E129.18084
G1 X86.482 Y30.998 E129.20101
G1 X87.028 Y30.734 E129.22119
G1 X87.604 Y30.545 E129.24135
G1 X88.2 Y30.433 E129.26152
G1 X88.75 Y30.4 E129.27984
G1 X146.25 Y30.4 E131.1923
G1 X146.855 Y30.44 E131.21247
G1 X147.449 Y30.559 E131.23262
G1 X148.023 Y30.755 E131.25279
G1 X148.566 Y31.026 E131.27298
G1 X149.069 Y31.365 E131.29315
G1 X149.522 Y31.767 E131.31329
G1 X149.919 Y32.225 E131.33345
G1 X150.252 Y32.732 E131.35363
G1 X150.516 Y33.278 E131.3738
G1 X150.705 Y33.854 E131.39396
G1 X150.817 Y34.45 E131.41413
G1 X150.85 Y35 E131.43246
G1 X150.85 Y200 E136.92038
G1 X150.81 Y200.605 E136.94055
G1 X150.691 Y201.199 E136.9607
G1 X150.495 Y201.773 E136.98087
G1 X150.224 Y202.316 E137.00106
G1 X149.885 Y202.819 E137.02123
G1 X149.483 Y203.272 E137.04137
