;FLAVOR:Marlin
;TIME:13074
;Filament used: 8.53875m
;Layer height: 0.2
;MINX:80.95
;MINY:52.2
;MINZ:0.2
;MAXX:154.05
;MAXY:182.8
;MAXZ:40
;Generated with Cura_SteamEngine 4.9.1
M140 S50
M105
M190 S50
M104 S200
M105
M109 S200
M82 ;absolute extrusion mode
; Ender 3 Custom Start G-code
G92 E0 ; Reset Extruder
G28 ; Home all axes
G1 Z2.0 F3000 ; Move Z Axis up little to prevent scratching of Heat Bed
G1 X0.1 Y20 Z0.3 F5000.0 ; Move to start position
G1 X0.1 Y200.0 Z0.3 F1500.0 E15 ; Draw the first line
G1 X0.4 Y200.0 Z0.3 F5000.0 ; Move to side a little
G1 X0.4 Y20 Z0.3 F1500.0 E30 ; Draw the second line
G92 E0 ; Reset Extruder
G1 Z2.0 F3000 ; Move Z Axis up little to prevent scratching of Heat Bed
G1 X5 Y20 Z0.3 F5000.0 ; Move over to prevent blob squish
G92 E0
G92 E0
G1 F2700 E-5
;LAYER_COUNT:200
;LAYER:0
M107
G0 F6000 X82.347 Y55.546 Z0.2
;TYPE:SKIRT
G1 F2700 E0
G1 F1200 X82.83 Y54.922 E0.02625
G1 X83.373 Y54.349 E0.0525
G1 X83.972 Y53.834 E0.07878
G1 X84.62 Y53.383 E0.10503
G1 X85.311 Y52.999 E0.13133
G1 X86.036 Y52.687 E0.15758
G1 X86.789 Y52.45 E0.18383
G1 X87.563 Y52.291 E0.21012
G1 X88.348 Y52.21 E0.23636
G1 X88.75 Y52.2 E0.24974
G1 X146.25 Y52.2 E2.1622
G1 X147.039 Y52.24 E2.18847
G1 X147.819 Y52.359 E2.21472
G1 X148.584 Y52.557 E2.241
G1 X149.324 Y52.831 E2.26724
G1 X150.033 Y53.179 E2.29351
G1 X150.704 Y53.597 E2.31981
G1 X151.328 Y54.08 E2.34605
G1 X151.901 Y54.623 E2.37231
G1 X152.416 Y55.222 E2.39858
G1 X152.867 Y55.87 E2.42484
G1 X153.251 Y56.561 E2.45113
G1 X153.563 Y57.286 E2.47738
G1 X153.8 Y58.039 E2.50364
G1 X153.959 Y58.813 E2.52992
G1 X154.04 Y59.598 E2.55617
G1 X154.05 Y60 E2.56954
G1 X154.05 Y175 E6.39446
G1 X154.01 Y175.789 E6.42074
G1 X153.891 Y176.569 E6.44698
G1 X153.693 Y177.334 E6.47326
G1 X153.419 Y178.074 E6.49951
G1 X153.071 Y178.783 E6.52578
G1 X152.653 Y179.454 E6.55207
G1 X152.17 Y180.078 E6.57831
G1 X151.627 Y180.651 E6.60457
G1 X151.028 Y181.166 E6.63084
G1 X150.38 Y181.617 E6.6571
G1 X149.689 Y182.001 E6.6834
G1 X148.964 Y182.313 E6.70965
G1 X148.211 Y182.55 E6.7359
G1 X147.437 Y182.709 E6.76219
G1 X146.652 Y182.79 E6.78843
G1 X146.25 Y182.8 E6.80181
G1 X88.75 Y182.8 E8.71427
G1 X87.961 Y182.76 E8.74054
G1 X87.181 Y182.641 E8.76678
G1 X86.416 Y182.443 E8.79307
G1 X85.676 Y182.169 E8.81931
G1 X84.967 Y181.821 E8.84558
G1 X84.296 Y181.403 E8.87188
G1 X83.672 Y180.92 E8.89812
G1 X83.099 Y180.377 E8.92438
G1 X82.584 Y179.778 E8.95065
G1 X82.133 Y179.13 E8.97691
G1 X81.749 Y178.439 E9.0032
G1 X81.437 Y177.714 E9.02945
G1 X81.2 Y176.961 E9.05571
G1 X81.041 Y176.187 E9.08199
G1 X80.96 Y175.402 E9.10824
G1 X80.95 Y175 E9.12161
G1 X80.95 Y60 E12.94653
G1 X80.99 Y59.211 E12.97281
G1 X81.109 Y58.431 E12.99905
G1 X81.307 Y57.666 E13.02533
G1 X81.581 Y56.926 E13.05158
G1 X81.929 Y56.217 E13.07784
G1 X82.347 Y55.546 E13.10414
G0 F6000 X82.744 Y55.677
G1 F1200 X83.225 Y55.077 E13.12972
G1 X83.766 Y54.53 E13.1553
G1 X84.361 Y54.042 E13.1809
G1 X85.003 Y53.619 E13.20647
G1 X85.686 Y53.264 E13.23207
G1 X86.401 Y52.983 E13.25762
G1 X87.143 Y52.777 E13.28324
G1 X87.901 Y52.649 E13.3088
G1 X88.75 Y52.6 E13.33709
G1 X146.25 Y52.6 E15.24955
G1 X147.018 Y52.64 E15.27513
G1 X147.778 Y52.759 E15.30071
G1 X148.521 Y52.957 E15.32629
G1 X149.24 Y53.231 E15.35188
G1 X149.926 Y53.578 E15.37745
G1 X150.573 Y53.994 E15.40303
G1 X151.173 Y54.475 E15.42861
G1 X151.72 Y55.016 E15.4542
G1 X152.208 Y55.611 E15.47979
G1 X152.631 Y56.253 E15.50536
G1 X152.986 Y56.936 E15.53096
G1 X153.267 Y57.651 E15.55651
G1 X153.473 Y58.393 E15.58213
G1 X153.601 Y59.151 E15.6077
G1 X153.65 Y60 E15.63598
G1 X153.65 Y175 E19.4609
G1 X153.61 Y175.768 E19.48647
G1 X153.491 Y176.528 E19.51206
G1 X153.293 Y177.271 E19.53763
G1 X153.019 Y177.99 E19.56323
G1 X152.672 Y178.676 E19.5888
G1 X152.256 Y179.323 E19.61438
G1 X151.775 Y179.923 E19.63996
G1 X151.234 Y180.47 E19.66554
G1 X150.639 Y180.958 E19.69114
G1 X149.997 Y181.381 E19.71671
G1 X149.314 Y181.736 E19.74231
G1 X148.599 Y182.017 E19.76786
G1 X147.857 Y182.223 E19.79348
G1 X147.099 Y182.351 E19.81904
G1 X146.25 Y182.4 E19.84733
G1 X88.75 Y182.4 E21.75979
G1 X87.982 Y182.36 E21.78537
G1 X87.222 Y182.241 E21.81095
G1 X86.479 Y182.043 E21.83653
G1 X85.76 Y181.769 E21.86212
G1 X85.074 Y181.422 E21.88769
G1 X84.427 Y181.006 E21.91327
G1 X83.827 Y180.525 E21.93885
G1 X83.28 Y179.984 E21.96444
G1 X82.792 Y179.389 E21.99003
G1 X82.369 Y178.747 E22.0156
G1 X82.014 Y178.064 E22.0412
G1 X81.733 Y177.349 E22.06676
G1 X81.527 Y176.607 E22.09237
G1 X81.399 Y175.849 E22.11794
G1 X81.35 Y175 E22.14622
G1 X81.35 Y60 E25.97114
G1 X81.39 Y59.232 E25.99672
G1 X81.509 Y58.472 E26.0223
G1 X81.707 Y57.729 E26.04788
G1 X81.981 Y57.01 E26.07347
G1 X82.328 Y56.324 E26.09904
G1 X82.744 Y55.677 E26.12462
G0 F6000 X83.142 Y55.811
G1 F1200 X83.621 Y55.237 E26.14949
G1 X84.158 Y54.716 E26.17437
G1 X84.748 Y54.257 E26.19923
G1 X85.384 Y53.862 E26.22413
G1 X86.058 Y53.538 E26.24901
G1 X86.763 Y53.288 E26.27389
G1 X87.491 Y53.114 E26.29878
G1 X88.233 Y53.019 E26.32366
G1 X88.75 Y53 E26.34087
G1 X146.25 Y53 E28.25333
G1 X146.997 Y53.04 E28.27821
G1 X147.735 Y53.159 E28.30307
G1 X148.457 Y53.357 E28.32797
G1 X149.153 Y53.63 E28.35284
G1 X149.816 Y53.977 E28.37773
G1 X150.439 Y54.392 E28.40262
G1 X151.013 Y54.871 E28.42749
G1 X151.534 Y55.408 E28.45238
G1 X151.993 Y55.998 E28.47724
G1 X152.388 Y56.634 E28.50214
G1 X152.712 Y57.308 E28.52701
G1 X152.962 Y58.013 E28.55189
G1 X153.136 Y58.741 E28.57679
G1 X153.231 Y59.483 E28.60167
G1 X153.25 Y60 E28.61887
G1 X153.25 Y175 E32.44379
G1 X153.21 Y175.747 E32.46867
G1 X153.091 Y176.485 E32.49353
G1 X152.893 Y177.207 E32.51843
G1 X152.62 Y177.903 E32.5433
G1 X152.273 Y178.566 E32.56819
G1 X151.858 Y179.189 E32.59309
G1 X151.379 Y179.763 E32.61795
G1 X150.842 Y180.284 E32.64284
G1 X150.252 Y180.743 E32.6677
G1 X149.616 Y181.138 E32.6926
G1 X148.942 Y181.462 E32.71747
G1 X148.237 Y181.712 E32.74235
G1 X147.509 Y181.886 E32.76725
G1 X146.767 Y181.981 E32.79213
G1 X146.25 Y182 E32.80934
G1 X88.75 Y182 E34.72179
G1 X88.003 Y181.96 E34.74668
G1 X87.265 Y181.841 E34.77154
G1 X86.543 Y181.643 E34.79644
G1 X85.847 Y181.37 E34.8213
G1 X85.184 Y181.023 E34.84619
G1 X84.561 Y180.608 E34.87109
G1 X83.987 Y180.129 E34.89596
G1 X83.466 Y179.592 E34.92084
G1 X83.007 Y179.002 E34.9457
G1 X82.612 Y178.366 E34.97061
G1 X82.288 Y177.692 E34.99548
G1 X82.038 Y176.987 E35.02036
G1 X81.864 Y176.259 E35.04525
G1 X81.769 Y175.517 E35.07013
G1 X81.75 Y175 E35.08734
G1 X81.75 Y60 E38.91226
G1 X81.79 Y59.253 E38.93714
G1 X81.909 Y58.515 E38.962
G1 X82.107 Y57.793 E38.9869
G1 X82.38 Y57.097 E39.01177
G1 X82.727 Y56.434 E39.03666
G1 X83.142 Y55.811 E39.06155
G0 F6000 X83.539 Y55.95
G1 F1200 X84.015 Y55.402 E39.0857
G1 X84.549 Y54.909 E39.10987
G1 X85.134 Y54.479 E39.13402
G1 X85.763 Y54.115 E39.15819
G1 X86.428 Y53.822 E39.18236
G1 X87.121 Y53.604 E39.20652
G1 X87.833 Y53.464 E39.23065
G1 X88.75 Y53.4 E39.26123
G1 X146.25 Y53.4 E41.17369
G1 X146.975 Y53.44 E41.19784
G1 X147.692 Y53.559 E41.22201
G1 X148.391 Y53.757 E41.24617
G1 X149.064 Y54.03 E41.27033
G1 X149.703 Y54.375 E41.29448
G1 X150.3 Y54.789 E41.31865
G1 X150.848 Y55.265 E41.34279
G1 X151.341 Y55.799 E41.36696
G1 X151.771 Y56.384 E41.39111
G1 X152.135 Y57.013 E41.41528
G1 X152.428 Y57.678 E41.43945
G1 X152.646 Y58.371 E41.46361
G1 X152.786 Y59.083 E41.48775
G1 X152.85 Y60 E41.51832
G1 X152.85 Y175 E45.34324
G1 X152.81 Y175.725 E45.36739
G1 X152.691 Y176.442 E45.39156
G1 X152.493 Y177.141 E45.41572
G1 X152.22 Y177.814 E45.43988
G1 X151.875 Y178.453 E45.46403
G1 X151.461 Y179.05 E45.4882
G1 X150.985 Y179.598 E45.51234
G1 X150.451 Y180.091 E45.53651
G1 X149.866 Y180.521 E45.56066
G1 X149.237 Y180.885 E45.58483
G1 X148.572 Y181.178 E45.609
G1 X147.879 Y181.396 E45.63316
G1 X147.167 Y181.536 E45.6573
G1 X146.25 Y181.6 E45.68787
G1 X88.75 Y181.6 E47.60033
G1 X88.025 Y181.56 E47.62448
G1 X87.308 Y181.441 E47.64865
G1 X86.609 Y181.243 E47.67282
G1 X85.936 Y180.97 E47.69697
G1 X85.297 Y180.625 E47.72113
G1 X84.7 Y180.211 E47.74529
G1 X84.152 Y179.735 E47.76943
G1 X83.659 Y179.201 E47.7936
G1 X83.229 Y178.616 E47.81775
G1 X82.865 Y177.987 E47.84192
G1 X82.572 Y177.322 E47.86609
G1 X82.354 Y176.629 E47.89026
G1 X82.214 Y175.917 E47.91439
G1 X82.15 Y175 E47.94496
G1 X82.15 Y60 E51.76988
G1 X82.19 Y59.275 E51.79403
G1 X82.309 Y58.558 E51.8182
G1 X82.507 Y57.859 E51.84237
G1 X82.78 Y57.186 E51.86652
G1 X83.125 Y56.547 E51.89068
G1 X83.539 Y55.95 E51.91484
G0 F6000 X83.524 Y56.665
G1 F1200 X83.935 Y56.094 E51.93824
G1 X84.409 Y55.573 E51.96167
G1 X84.939 Y55.109 E51.9851
G1 X85.518 Y54.709 E52.0085
G1 X86.139 Y54.377 E52.03192
G1 X86.793 Y54.117 E52.05533
G1 X87.473 Y53.933 E52.07876
G1 X88.169 Y53.827 E52.10218
G1 X88.75 Y53.8 E52.12152
G1 X146.25 Y53.8 E54.03398
G1 X146.953 Y53.84 E54.0574
G1 X147.647 Y53.959 E54.08082
G1 X148.322 Y54.157 E54.10422
G1 X148.971 Y54.429 E54.12762
G1 X149.585 Y54.774 E54.15104
G1 X150.156 Y55.185 E54.17444
G1 X150.677 Y55.659 E54.19787
G1 X151.141 Y56.189 E54.2213
G1 X151.541 Y56.768 E54.24471
G1 X151.873 Y57.389 E54.26813
G1 X152.133 Y58.043 E54.29154
G1 X152.317 Y58.723 E54.31497
G1 X152.423 Y59.419 E54.33838
G1 X152.45 Y60 E54.35773
G1 X152.45 Y175 E58.18264
G1 X152.41 Y175.703 E58.20606
G1 X152.291 Y176.397 E58.22948
G1 X152.093 Y177.072 E58.25288
G1 X151.821 Y177.721 E58.27628
G1 X151.476 Y178.335 E58.29971
G1 X151.065 Y178.906 E58.32311
G1 X150.591 Y179.427 E58.34653
G1 X150.061 Y179.891 E58.36996
G1 X149.482 Y180.291 E58.39337
G1 X148.861 Y180.623 E58.41679
G1 X148.207 Y180.883 E58.4402
G1 X147.527 Y181.067 E58.46363
G1 X146.831 Y181.173 E58.48704
G1 X146.25 Y181.2 E58.50639
G1 X88.75 Y181.2 E60.41885
G1 X88.047 Y181.16 E60.44227
G1 X87.353 Y181.041 E60.46569
G1 X86.678 Y180.843 E60.48908
G1 X86.029 Y180.571 E60.51249
G1 X85.415 Y180.226 E60.53591
G1 X84.844 Y179.815 E60.55931
G1 X84.323 Y179.341 E60.58274
G1 X83.859 Y178.811 E60.60617
G1 X83.459 Y178.232 E60.62957
G1 X83.127 Y177.611 E60.653
G1 X82.867 Y176.957 E60.6764
G1 X82.683 Y176.277 E60.69983
G1 X82.577 Y175.581 E60.72325
G1 X82.55 Y175 E60.74259
G1 X82.55 Y60 E64.56751
G1 X82.59 Y59.297 E64.59093
G1 X82.709 Y58.603 E64.61435
G1 X82.907 Y57.928 E64.63775
G1 X83.179 Y57.279 E64.66115
G1 X83.524 Y56.665 E64.68458
G0 F6000 X83.922 Y56.786
G1 F1200 X84.332 Y56.242 E64.70723
G1 X84.803 Y55.751 E64.72986
G1 X85.328 Y55.317 E64.75252
G1 X85.9 Y54.948 E64.77516
G1 X86.512 Y54.649 E64.79781
G1 X87.154 Y54.424 E64.82044
G1 X87.819 Y54.275 E64.84311
G1 X88.75 Y54.2 E64.87417
G1 X146.25 Y54.2 E66.78663
G1 X146.93 Y54.24 E66.80928
G1 X147.6 Y54.359 E66.83192
G1 X148.252 Y54.556 E66.85457
G1 X148.876 Y54.828 E66.87721
G1 X149.464 Y55.172 E66.89987
G1 X150.008 Y55.582 E66.92253
G1 X150.499 Y56.053 E66.94516
G1 X150.933 Y56.578 E66.96781
G1 X151.302 Y57.15 E66.99045
G1 X151.601 Y57.762 E67.01311
G1 X151.826 Y58.404 E67.03573
G1 X151.975 Y59.069 E67.0584
G1 X152.05 Y60 E67.08946
G1 X152.05 Y175 E70.91438
G1 X152.01 Y175.68 E70.93704
G1 X151.891 Y176.35 E70.95967
G1 X151.694 Y177.002 E70.98232
G1 X151.422 Y177.626 E71.00496
G1 X151.078 Y178.214 E71.02762
G1 X150.668 Y178.758 E71.05028
G1 X150.197 Y179.249 E71.07291
G1 X149.672 Y179.683 E71.09556
G1 X149.1 Y180.052 E71.1182
G1 X148.488 Y180.351 E71.14086
G1 X147.846 Y180.576 E71.16348
G1 X147.181 Y180.725 E71.18615
G1 X146.25 Y180.8 E71.21722
G1 X88.75 Y180.8 E73.12967
G1 X88.07 Y180.76 E73.15233
G1 X87.4 Y180.641 E73.17496
G1 X86.748 Y180.444 E73.19762
G1 X86.124 Y180.172 E73.22026
G1 X85.536 Y179.828 E73.24292
G1 X84.992 Y179.418 E73.26557
G1 X84.501 Y178.947 E73.2882
G1 X84.067 Y178.422 E73.31086
G1 X83.698 Y177.85 E73.3335
G1 X83.399 Y177.238 E73.35615
G1 X83.174 Y176.596 E73.37878
G1 X83.025 Y175.931 E73.40144
G1 X82.95 Y175 E73.43251
G1 X82.95 Y60 E77.25743
G1 X82.99 Y59.32 E77.28008
G1 X83.109 Y58.65 E77.30271
G1 X83.306 Y57.998 E77.32537
G1 X83.578 Y57.374 E77.34801
G1 X83.922 Y56.786 E77.37067
G0 F6000 X84.32 Y56.912
G1 F1200 X84.728 Y56.397 E77.39252
G1 X85.195 Y55.935 E77.41437
G1 X85.715 Y55.534 E77.43621
G1 X86.279 Y55.198 E77.45804
G1 X86.881 Y54.934 E77.47991
G1 X87.51 Y54.744 E77.50176
G1 X88.157 Y54.633 E77.5236
G1 X88.75 Y54.6 E77.54335
G1 X146.25 Y54.6 E79.45581
G1 X146.906 Y54.64 E79.47767
G1 X147.552 Y54.759 E79.49951
G1 X148.179 Y54.956 E79.52137
G1 X148.777 Y55.228 E79.54322
G1 X149.338 Y55.57 E79.56508
G1 X149.853 Y55.978 E79.58693
G1 X150.315 Y56.445 E79.60878
G1 X150.716 Y56.965 E79.63062
G1 X151.052 Y57.529 E79.65245
G1 X151.316 Y58.131 E79.67432
G1 X151.506 Y58.76 E79.69617
G1 X151.617 Y59.407 E79.71801
G1 X151.65 Y60 E79.73776
G1 X151.65 Y175 E83.56267
G1 X151.61 Y175.656 E83.58453
G1 X151.491 Y176.302 E83.60638
G1 X151.294 Y176.929 E83.62824
G1 X151.022 Y177.527 E83.65009
G1 X150.68 Y178.088 E83.67194
G1 X150.272 Y178.603 E83.6938
G1 X149.805 Y179.065 E83.71565
G1 X149.285 Y179.466 E83.73749
G1 X148.721 Y179.802 E83.75932
G1 X148.119 Y180.066 E83.78119
G1 X147.49 Y180.256 E83.80304
G1 X146.843 Y180.367 E83.82487
G1 X146.25 Y180.4 E83.84463
G1 X88.75 Y180.4 E85.75708
G1 X88.094 Y180.36 E85.77894
G1 X87.448 Y180.241 E85.80079
G1 X86.821 Y180.044 E85.82265
G1 X86.223 Y179.772 E85.8445
G1 X85.662 Y179.43 E85.86635
G1 X85.147 Y179.022 E85.88821
G1 X84.685 Y178.555 E85.91006
G1 X84.284 Y178.035 E85.9319
G1 X83.948 Y177.471 E85.95373
G1 X83.684 Y176.869 E85.97559
G1 X83.494 Y176.24 E85.99745
G1 X83.383 Y175.593 E86.01928
G1 X83.35 Y175 E86.03904
G1 X83.35 Y60 E89.86395
G1 X83.39 Y59.344 E89.88581
G1 X83.509 Y58.698 E89.90766
G1 X83.706 Y58.071 E89.92952
G1 X83.978 Y57.473 E89.95137
G1 X84.32 Y56.912 E89.97322
G0 F6000 X84.717 Y57.044
G1 F1200 X85.123 Y56.559 E89.99426
G1 X85.586 Y56.129 E90.01527
G1 X86.1 Y55.76 E90.03632
G1 X86.656 Y55.46 E90.05733
G1 X87.245 Y55.232 E90.07834
G1 X87.859 Y55.08 E90.09938
G1 X88.75 Y55 E90.12913
G1 X146.25 Y55 E92.04159
G1 X146.881 Y55.04 E92.06262
G1 X147.502 Y55.159 E92.08365
G1 X148.102 Y55.356 E92.10465
G1 X148.674 Y55.627 E92.1257
G1 X149.206 Y55.967 E92.1467
G1 X149.691 Y56.373 E92.16774
G1 X150.121 Y56.836 E92.18876
G1 X150.49 Y57.35 E92.2098
G1 X150.79 Y57.906 E92.23082
G1 X151.018 Y58.495 E92.25182
G1 X151.17 Y59.109 E92.27286
G1 X151.25 Y60 E92.30261
G1 X151.25 Y175 E96.12753
G1 X151.21 Y175.631 E96.14856
G1 X151.091 Y176.252 E96.16959
G1 X150.894 Y176.852 E96.19059
G1 X150.623 Y177.424 E96.21165
G1 X150.283 Y177.956 E96.23265
G1 X149.877 Y178.441 E96.25368
G1 X149.414 Y178.871 E96.2747
G1 X148.9 Y179.24 E96.29574
G1 X148.344 Y179.54 E96.31676
G1 X147.755 Y179.768 E96.33776
G1 X147.141 Y179.92 E96.3588
G1 X146.25 Y180 E96.38856
G1 X88.75 Y180 E98.30101
G1 X88.119 Y179.96 E98.32204
G1 X87.498 Y179.841 E98.34307
G1 X86.898 Y179.644 E98.36408
G1 X86.326 Y179.373 E98.38513
G1 X85.794 Y179.033 E98.40613
G1 X85.309 Y178.627 E98.42717
G1 X84.879 Y178.164 E98.44818
G1 X84.51 Y177.65 E98.46923
G1 X84.21 Y177.094 E98.49024
G1 X83.982 Y176.505 E98.51125
G1 X83.83 Y175.891 E98.53228
G1 X83.75 Y175 E98.56204
G1 X83.75 Y60 E102.38695
G1 X83.79 Y59.369 E102.40798
G1 X83.909 Y58.748 E102.42901
G1 X84.106 Y58.148 E102.45002
G1 X84.377 Y57.576 E102.47107
G1 X84.717 Y57.044 E102.49207
G0 F6000 X85.115 Y57.181
G1 F1200 X85.517 Y56.728 E102.51221
G1 X85.975 Y56.331 E102.53237
G1 X86.482 Y55.998 E102.55255
G1 X87.028 Y55.734 E102.57272
G1 X87.604 Y55.545 E102.59288
G1 X88.2 Y55.433 E102.61305
G1 X88.75 Y55.4 E102.63138
G1 X146.25 Y55.4 E104.54384
G1 X146.855 Y55.44 E104.564
G1 X147.449 Y55.559 E104.58415
G1 X148.023 Y55.755 E104.60432
G1 X148.566 Y56.026 E104.62451
G1 X149.069 Y56.365 E104.64468
G1 X149.522 Y56.767 E104.66483
G1 X149.919 Y57.225 E104.68499
G1 X150.252 Y57.732 E104.70516
G1 X150.516 Y58.278 E104.72533
G1 X150.705 Y58.854 E104.7455
G1 X150.817 Y59.45 E104.76567
G1 X150.85 Y60 E104.78399
G1 X150.85 Y175 E108.60891
G1 X150.81 Y175.605 E108.62907
G1 X150.691 Y176.199 E108.64922
G1 X150.495 Y176.773 E108.6694
G1 X150.224 Y177.316 E108.68958
G1 X149.885 Y177.819 E108.70976
G1 X149.483 Y178.272 E108.7299
G1 X149.025 Y178.669 E108.75006
G1 X148.518 Y179.002 E108.77023
G1 X147.972 Y179.266 E108.79041
G1 X147.396 Y179.455 E108.81057
G1 X146.8 Y179.567 E108.83074
