;FLAVOR:Marlin
;TIME:25022
;Filament used: 18.1829m
;Layer height: 0.2
;MINX:25.071
;MINY:24.821
;MINZ:0.2
;MAXX:209.61
;MAXY:210.179
;MAXZ:42
;Generated with Cura_SteamEngine 4.9.1
M140 S50
M105
M190 S50
M104 S200
M105
M109 S200
M82 ;absolute extrusion mode
; Ender 3 Custom Start G-code
G92 E0 ; Reset Extruder
G28 ; Home all axes
G1 Z2.0 F3000 ; Move Z Axis up little to prevent scratching of Heat Bed
G1 X0.1 Y20 Z0.3 F5000.0 ; Move to start position
G1 X0.1 Y200.0 Z0.3 F1500.0 E15 ; Draw the first line
G1 X0.4 Y200.0 Z0.3 F5000.0 ; Move to side a little
G1 X0.4 Y20 Z0.3 F1500.0 E30 ; Draw the second line
G92 E0 ; Reset Extruder
G1 Z2.0 F3000 ; Move Z Axis up little to prevent scratching of Heat Bed
G1 X5 Y20 Z0.3 F5000.0 ; Move over to prevent blob squish
G92 E0
G92 E0
G1 F2700 E-5
;LAYER_COUNT:210
;LAYER:0
M107
G0 F6000 X50.81 Y49.237 Z0.2
;TYPE:SKIRT
G1 F2700 E0
G1 F1200 X40.222 Y59.827 E0.49807
G1 X39.984 Y60.122 E0.51068
G1 X39.813 Y60.46 E0.52328
G1 X39.716 Y60.826 E0.53587
G1 X39.695 Y61.1 E0.54501
G1 X39.695 Y61.498 E0.55825
G1 X39.735 Y61.875 E0.57086
G1 X39.853 Y62.235 E0.58346
G1 X40.043 Y62.562 E0.59604
G1 X40.222 Y62.771 E0.60519
G1 X57.502 Y80.051 E1.41799
G1 X57.797 Y80.289 E1.4306
G1 X58.135 Y80.46 E1.4432
G1 X58.501 Y80.557 E1.45579
G1 X58.775 Y80.578 E1.46493
G1 X59.173 Y80.578 E1.47817
G1 X59.55 Y80.538 E1.49078
G1 X59.91 Y80.42 E1.50338
G1 X60.237 Y80.23 E1.51596
G1 X60.446 Y80.051 E1.52511
G1 X71.036 Y69.462 E2.02321
G1 X71.274 Y69.167 E2.03581
G1 X71.445 Y68.829 E2.04841
G1 X71.536 Y68.5 E2.05976
G1 X71.605 Y68.107 E2.07304
G1 X71.631 Y67.729 E2.08564
G1 X71.577 Y67.354 E2.09824
G1 X71.463 Y67.034 E2.10954
G1 X69.578 Y62.999 E2.25766
G1 X70.321 Y62.383 E2.28976
G1 X70.532 Y62.177 E2.29957
G1 X71.302 Y61.289 E2.33866
G1 X71.481 Y61.044 E2.34876
G1 X72.081 Y60.055 E2.38723
G1 X72.213 Y59.791 E2.39705
G1 X72.644 Y58.717 E2.43554
G1 X72.733 Y58.424 E2.44572
G1 X72.979 Y57.277 E2.48474
G1 X73.017 Y56.979 E2.49473
G1 X73.068 Y55.82 E2.53332
G1 X73.057 Y55.529 E2.543
G1 X72.92 Y54.374 E2.58169
G1 X72.86 Y54.08 E2.59167
G1 X72.529 Y52.95 E2.63083
G1 X72.421 Y52.67 E2.64081
G1 X71.92 Y51.638 E2.67897
G1 X71.767 Y51.38 E2.68895
G1 X71.082 Y50.418 E2.72822
G1 X70.888 Y50.188 E2.73823
G1 X70.091 Y49.392 E2.7757
G1 X69.861 Y49.198 E2.7857
G1 X68.885 Y48.505 E2.82552
G1 X68.63 Y48.354 E2.83537
G1 X67.596 Y47.851 E2.87362
G1 X67.324 Y47.745 E2.88333
G1 X66.212 Y47.413 E2.92193
G1 X65.908 Y47.35 E2.93225
G1 X64.749 Y47.213 E2.97107
G1 X64.455 Y47.203 E2.98085
G1 X63.281 Y47.257 E3.01994
G1 X62.985 Y47.295 E3.02987
G1 X61.847 Y47.54 E3.06858
G1 X61.558 Y47.628 E3.07863
G1 X60.474 Y48.061 E3.11746
G1 X60.203 Y48.197 E3.12754
G1 X59.227 Y48.794 E3.16559
G1 X58.989 Y48.968 E3.1754
G1 X58.1 Y49.736 E3.21447
G1 X57.891 Y49.949 E3.2244
G1 X57.273 Y50.694 E3.25659
G1 X53.238 Y48.81 E3.40471
G1 X52.879 Y48.687 E3.41733
G1 X52.503 Y48.641 E3.42993
G1 X52.165 Y48.668 E3.44121
G1 X51.772 Y48.737 E3.45448
G1 X51.407 Y48.842 E3.46711
G1 X51.073 Y49.02 E3.4797
G1 X50.81 Y49.237 E3.49104
G0 F6000 X51.093 Y49.52
G1 F1200 X40.505 Y60.11 E3.98911
G1 X40.299 Y60.373 E4.00022
G1 X40.16 Y60.677 E4.01134
G1 X40.095 Y61.1 E4.02558
G1 X40.095 Y61.498 E4.03881
G1 X40.135 Y61.83 E4.04993
G1 X40.252 Y62.142 E4.06102
G1 X40.505 Y62.488 E4.07527
G1 X57.785 Y79.768 E4.88807
G1 X58.048 Y79.974 E4.89918
G1 X58.352 Y80.113 E4.9103
G1 X58.775 Y80.178 E4.92454
G1 X59.173 Y80.178 E4.93777
G1 X59.505 Y80.138 E4.9489
G1 X59.817 Y80.021 E4.95998
G1 X60.163 Y79.768 E4.97423
G1 X70.753 Y69.179 E5.47233
G1 X70.959 Y68.916 E5.48344
G1 X71.098 Y68.612 E5.49456
G1 X71.142 Y68.431 E5.50076
G1 X71.211 Y68.038 E5.51403
G1 X71.229 Y67.705 E5.52512
G1 X71.168 Y67.376 E5.53625
G1 X71.1 Y67.203 E5.54243
G1 X69.081 Y62.881 E5.70109
G1 X69.174 Y62.815 E5.70489
G1 X70.066 Y62.075 E5.74343
G1 X70.23 Y61.915 E5.75106
G1 X71 Y61.027 E5.79015
G1 X71.139 Y60.836 E5.798
G1 X71.739 Y59.847 E5.83648
G1 X71.841 Y59.642 E5.84409
G1 X72.272 Y58.568 E5.88258
G1 X72.342 Y58.341 E5.89049
G1 X72.588 Y57.194 E5.9295
G1 X72.618 Y56.962 E5.93728
G1 X72.669 Y55.803 E5.97587
G1 X72.66 Y55.576 E5.98342
G1 X72.523 Y54.421 E6.02211
G1 X72.477 Y54.192 E6.02988
G1 X72.146 Y53.062 E6.06904
G1 X72.061 Y52.845 E6.07679
G1 X71.56 Y51.813 E6.11495
G1 X71.441 Y51.612 E6.12272
G1 X70.756 Y50.65 E6.162
G1 X70.605 Y50.471 E6.16979
G1 X69.808 Y49.675 E6.20725
G1 X69.63 Y49.524 E6.21501
G1 X68.654 Y48.831 E6.25483
G1 X68.455 Y48.714 E6.2625
G1 X67.421 Y48.211 E6.30075
G1 X67.21 Y48.129 E6.30828
G1 X66.098 Y47.797 E6.34688
G1 X65.861 Y47.748 E6.35493
G1 X64.702 Y47.611 E6.39374
G1 X64.474 Y47.602 E6.40133
G1 X63.3 Y47.656 E6.44042
G1 X63.069 Y47.686 E6.44817
G1 X61.931 Y47.931 E6.48689
G1 X61.707 Y48 E6.49468
G1 X60.623 Y48.433 E6.53351
G1 X60.411 Y48.539 E6.54139
G1 X59.435 Y49.136 E6.57944
G1 X59.251 Y49.271 E6.58703
G1 X58.362 Y50.039 E6.62611
G1 X58.199 Y50.204 E6.63382
G1 X57.456 Y51.1 E6.67253
G1 X57.393 Y51.191 E6.67622
G1 X53.068 Y49.172 E6.83497
G1 X52.751 Y49.068 E6.84606
G1 X52.418 Y49.042 E6.85717
G1 X52.234 Y49.062 E6.86333
G1 X51.841 Y49.131 E6.8766
G1 X51.521 Y49.228 E6.88772
G1 X51.233 Y49.397 E6.89883
G1 X51.093 Y49.52 E6.90503
G0 F6000 X51.376 Y49.803
G1 F1200 X40.788 Y60.393 E7.4031
G1 X40.618 Y60.619 E7.41251
G1 X40.519 Y60.883 E7.42188
G1 X40.495 Y61.1 E7.42915
G1 X40.495 Y61.498 E7.44238
G1 X40.535 Y61.777 E7.45176
G1 X40.651 Y62.034 E7.46114
G1 X40.788 Y62.205 E7.46842
G1 X58.068 Y79.485 E8.28122
G1 X58.294 Y79.654 E8.29061
G1 X58.558 Y79.754 E8.3
G1 X58.775 Y79.778 E8.30726
G1 X59.173 Y79.778 E8.3205
G1 X59.452 Y79.738 E8.32987
G1 X59.709 Y79.622 E8.33925
G1 X59.88 Y79.485 E8.34654
G1 X70.47 Y68.896 E8.84463
G1 X70.639 Y68.671 E8.85399
G1 X70.748 Y68.362 E8.86489
G1 X70.817 Y67.969 E8.87816
G1 X70.826 Y67.687 E8.88755
G1 X70.738 Y67.373 E8.89839
G1 X68.568 Y62.727 E9.06894
G1 X68.918 Y62.508 E9.08268
G1 X69.81 Y61.768 E9.12122
G1 X69.928 Y61.653 E9.12671
G1 X70.698 Y60.765 E9.1658
G1 X70.797 Y60.629 E9.17139
G1 X71.397 Y59.64 E9.20987
G1 X71.47 Y59.493 E9.21533
G1 X71.901 Y58.419 E9.25382
G1 X71.951 Y58.257 E9.25945
G1 X72.197 Y57.11 E9.29847
G1 X72.218 Y56.944 E9.30404
G1 X72.269 Y55.785 E9.34262
G1 X72.263 Y55.623 E9.34801
G1 X72.126 Y54.468 E9.3867
G1 X72.093 Y54.305 E9.39223
G1 X71.762 Y53.175 E9.43139
G1 X71.702 Y53.019 E9.43695
G1 X71.201 Y51.987 E9.47511
G1 X71.116 Y51.844 E9.48064
G1 X70.431 Y50.882 E9.51992
G1 X70.323 Y50.754 E9.52549
G1 X69.526 Y49.958 E9.56296
G1 X69.398 Y49.851 E9.5685
G1 X68.422 Y49.158 E9.60832
G1 X68.28 Y49.074 E9.6138
G1 X67.246 Y48.571 E9.65205
G1 X67.095 Y48.512 E9.65744
G1 X65.983 Y48.18 E9.69604
G1 X65.814 Y48.145 E9.70178
G1 X64.655 Y48.008 E9.7406
G1 X64.492 Y48.002 E9.74602
G1 X63.318 Y48.056 E9.78511
G1 X63.154 Y48.077 E9.79061
G1 X62.016 Y48.322 E9.82933
G1 X61.855 Y48.371 E9.83492
G1 X60.771 Y48.804 E9.87375
G1 X60.62 Y48.88 E9.87937
G1 X59.644 Y49.477 E9.91742
G1 X59.512 Y49.573 E9.92285
G1 X58.623 Y50.341 E9.96193
G1 X58.507 Y50.46 E9.96745
G1 X57.764 Y51.356 E10.00617
G1 X57.546 Y51.705 E10.01985
G1 X52.899 Y49.535 E10.19044
G1 X52.629 Y49.453 E10.19982
G1 X52.303 Y49.456 E10.21066
G1 X51.91 Y49.525 E10.22393
G1 X51.642 Y49.613 E10.23332
G1 X51.376 Y49.803 E10.24419
G0 F6000 X51.659 Y50.086
G1 F1200 X41.071 Y60.676 E10.74226
G1 X40.947 Y60.856 E10.74953
G1 X40.895 Y61.1 E10.75783
G1 X40.895 Y61.498 E10.77107
G1 X40.935 Y61.713 E10.77834
G1 X41.071 Y61.922 E10.78664
G1 X58.351 Y79.202 E11.59943
G1 X58.53 Y79.326 E11.60668
G1 X58.775 Y79.378 E11.61501
G1 X59.173 Y79.378 E11.62824
G1 X59.388 Y79.338 E11.63552
G1 X59.597 Y79.202 E11.64381
G1 X70.187 Y68.613 E12.14191
G1 X70.311 Y68.434 E12.14915
G1 X70.354 Y68.293 E12.15405
G1 X70.423 Y67.9 E12.16733
G1 X70.421 Y67.682 E12.17458
G1 X70.376 Y67.542 E12.17947
G1 X68.051 Y62.565 E12.36217
G1 X68.581 Y62.257 E12.38256
G1 X68.663 Y62.2 E12.38588
G1 X69.555 Y61.46 E12.42443
G1 X69.625 Y61.391 E12.4277
G1 X70.395 Y60.503 E12.46679
G1 X70.455 Y60.421 E12.47017
G1 X71.055 Y59.432 E12.50865
G1 X71.099 Y59.344 E12.51192
G1 X71.53 Y58.27 E12.55041
G1 X71.56 Y58.173 E12.55379
G1 X71.806 Y57.026 E12.59281
G1 X71.818 Y56.926 E12.59615
G1 X71.869 Y55.767 E12.63474
G1 X71.866 Y55.67 E12.63797
G1 X71.729 Y54.515 E12.67665
G1 X71.709 Y54.417 E12.67998
G1 X71.378 Y53.287 E12.71914
G1 X71.342 Y53.194 E12.72246
G1 X70.841 Y52.162 E12.76062
G1 X70.79 Y52.076 E12.76394
G1 X70.105 Y51.114 E12.80322
G1 X70.04 Y51.037 E12.80657
G1 X69.243 Y50.241 E12.84404
G1 X69.166 Y50.177 E12.84737
G1 X68.19 Y49.484 E12.88718
G1 X68.105 Y49.433 E12.89048
G1 X67.071 Y48.93 E12.92872
G1 X66.981 Y48.895 E12.93193
G1 X65.869 Y48.563 E12.97053
G1 X65.767 Y48.542 E12.97399
G1 X64.608 Y48.405 E13.01281
G1 X64.51 Y48.402 E13.01607
G1 X63.336 Y48.456 E13.05516
G1 X63.238 Y48.468 E13.05844
G1 X62.1 Y48.713 E13.09716
G1 X62.003 Y48.743 E13.10054
G1 X60.919 Y49.176 E13.13936
G1 X60.829 Y49.221 E13.14271
G1 X59.853 Y49.818 E13.18076
G1 X59.774 Y49.876 E13.18402
G1 X58.885 Y50.644 E13.2231
G1 X58.815 Y50.715 E13.22641
G1 X58.072 Y51.611 E13.26513
G1 X58.015 Y51.693 E13.26845
G1 X57.709 Y52.222 E13.28877
G1 X52.73 Y49.897 E13.47154
G1 X52.519 Y49.843 E13.47879
G1 X52.372 Y49.85 E13.48368
G1 X51.979 Y49.919 E13.49695
G1 X51.775 Y49.995 E13.50419
G1 X51.659 Y50.086 E13.5091
G0 F6000 X51.942 Y50.369
G1 F1200 X41.354 Y60.959 E14.00717
G1 X41.295 Y61.1 E14.01225
G1 X41.295 Y61.498 E14.02549
G1 X41.354 Y61.639 E14.03058
G1 X58.634 Y78.919 E14.84337
G1 X58.775 Y78.978 E14.84846
G1 X59.173 Y78.978 E14.8617
G1 X59.314 Y78.919 E14.86678
G1 X69.904 Y68.33 E15.36488
G1 X69.96 Y68.224 E15.36886
G1 X70.029 Y67.831 E15.38213
G1 X70.013 Y67.711 E15.38616
G1 X67.534 Y62.402 E15.58104
G1 X68.38 Y61.911 E15.61357
G1 X68.408 Y61.892 E15.6147
G1 X69.3 Y61.152 E15.65325
G1 X69.323 Y61.129 E15.65433
G1 X70.093 Y60.241 E15.69342
G1 X70.113 Y60.214 E15.69454
G1 X70.713 Y59.225 E15.73301
G1 X70.728 Y59.195 E15.73413
G1 X71.159 Y58.121 E15.77262
G1 X71.169 Y58.089 E15.77374
G1 X71.415 Y56.942 E15.81275
G1 X71.419 Y56.909 E15.81386
G1 X71.47 Y55.75 E15.85244
G1 X71.469 Y55.717 E15.85354
G1 X71.332 Y54.562 E15.89223
G1 X71.325 Y54.53 E15.89332
G1 X70.994 Y53.4 E15.93248
G1 X70.982 Y53.369 E15.93359
G1 X70.481 Y52.337 E15.97174
G1 X70.464 Y52.308 E15.97286
G1 X69.779 Y51.346 E16.01214
G1 X69.757 Y51.32 E16.01327
G1 X68.96 Y50.524 E16.05074
G1 X68.935 Y50.503 E16.05182
G1 X67.959 Y49.81 E16.09163
G1 X67.93 Y49.793 E16.09275
G1 X66.896 Y49.29 E16.131
G1 X66.866 Y49.278 E16.13207
G1 X65.754 Y48.946 E16.17067
G1 X65.72 Y48.939 E16.17182
G1 X64.561 Y48.802 E16.21064
G1 X64.529 Y48.801 E16.21171
G1 X63.355 Y48.855 E16.25079
G1 X63.322 Y48.859 E16.2519
G1 X62.184 Y49.104 E16.29062
G1 X62.152 Y49.114 E16.29173
G1 X61.068 Y49.547 E16.33056
G1 X61.038 Y49.562 E16.33167
G1 X60.062 Y50.159 E16.36972
G1 X60.035 Y50.179 E16.37084
G1 X59.146 Y50.947 E16.40992
G1 X59.123 Y50.97 E16.411
G1 X58.38 Y51.866 E16.44971
G1 X58.361 Y51.894 E16.45084
G1 X57.871 Y52.739 E16.48333
G1 X52.561 Y50.26 E16.67824
G1 X52.441 Y50.244 E16.68226
G1 X52.048 Y50.313 E16.69553
G1 X51.942 Y50.369 E16.69952
G1 F2700 E11.69952
G0 F6000 X65.729 Y27.616
G0 X66.058 Y27.945
G1 F2700 E16.69952
G1 F1200 X207.055 Y168.942 E23.33159
G1 X168.942 Y207.055 E25.12431
G1 X27.945 Y66.058 E31.75637
G1 X66.058 Y27.945 E33.54909
G0 F6000 X66.058 Y27.379
G1 F1200 X207.621 Y168.942 E40.20778
G1 X168.942 Y207.621 E42.02712
G1 X27.379 Y66.058 E48.68581
G1 X66.058 Y27.379 E50.50515
G0 F6000 X66.058 Y26.813
G1 F1200 X208.187 Y168.942 E57.19047
G1 X168.942 Y208.187 E59.03643
G1 X26.813 Y66.058 E65.72174
G1 X66.058 Y26.813 E67.56771
G0 F6000 X66.058 Y26.247
G1 F1200 X208.753 Y168.942 E74.27964
G1 X168.942 Y208.753 E76.15223
G1 X26.247 Y66.058 E82.86417
G1 X66.058 Y26.247 E84.73675
G0 F6000 X66.059 Y25.682
G1 F1200 X209.318 Y168.943 E91.47526
G1 X168.941 Y209.318 E93.37443
G1 X25.682 Y66.057 E100.11294
G1 X66.059 Y25.682 E102.0121
G1 F2700 E97.0121
G0 F6000 X66.058 Y28.509
;TYPE:SUPPORT
G1 F2700 E102.0121
G1 F1200 X206.491 Y168.942 E108.61764
G1 X168.942 Y206.491 E110.38383
G1 X28.509 Y66.058 E116.98937
G1 X66.058 Y28.509 E118.75556
G0 F6000 X66.058 Y29.075
G1 F1200 X205.925 Y168.942 E125.33447
G1 X168.942 Y205.925 E127.07404
G1 X29.075 Y66.058 E133.65295
G1 X66.058 Y29.075 E135.39252
G1 F2700 E130.39252
G0 F6000 X65.164 Y28.181
G0 X64.583 Y47.662
G0 X64.631 Y46.394
G1 F2700 E135.39252
G1 F1200 X63.028 Y46.468 E135.44589
G1 X61.464 Y46.804 E135.4991
G1 X59.973 Y47.401 E135.55252
G1 X58.628 Y48.223 E135.60495
G1 X57.414 Y49.272 E135.65831
G1 X57.052 Y49.708 E135.67716
G1 X52.834 Y47.738 E135.832
G1 X50.824 Y48.091 E135.89987
G1 X38.895 Y60.023 E136.46105
G1 X38.895 Y62.575 E136.54593
G1 X57.698 Y81.378 E137.43036
G1 X60.25 Y81.378 E137.51524
G1 X72.182 Y69.448 E138.07644
G1 X72.535 Y67.438 E138.14431
G1 X70.565 Y63.22 E138.29915
G1 X70.996 Y62.862 E138.31779
G1 X72.05 Y61.647 E138.37129
G1 X72.875 Y60.288 E138.42416
G1 X73.469 Y58.809 E138.47717
G1 X73.807 Y57.232 E138.53082
G1 X73.877 Y55.645 E138.58365
G1 X73.689 Y54.064 E138.63661
G1 X73.235 Y52.516 E138.69026
G1 X72.545 Y51.093 E138.74286
G1 X71.607 Y49.776 E138.79664
G1 X70.502 Y48.672 E138.84859
G1 X69.173 Y47.729 E138.90279
G1 X67.756 Y47.039 E138.95521
G1 X66.225 Y46.582 E139.00835
G1 X64.631 Y46.394 E139.06174
G0 F6000 X64.617 Y46.795
G1 F1200 X63.08 Y46.866 E139.11291
G1 X61.581 Y47.188 E139.16391
G1 X60.153 Y47.76 E139.21507
G1 X58.865 Y48.547 E139.26527
G1 X57.701 Y49.553 E139.31644
G1 X57.163 Y50.201 E139.34446
G1 X52.779 Y48.154 E139.50538
G1 X51.018 Y48.463 E139.56485
G1 X39.295 Y60.189 E140.11633
G1 X39.295 Y62.409 E140.19017
G1 X57.864 Y80.978 E141.0636
G1 X60.084 Y80.978 E141.13743
G1 X71.81 Y69.254 E141.68894
G1 X72.119 Y67.493 E141.74841
G1 X70.072 Y63.11 E141.9093
G1 X70.715 Y62.575 E141.93712
G1 X71.726 Y61.41 E141.98843
G1 X72.516 Y60.108 E142.03908
G1 X73.085 Y58.692 E142.08984
G1 X73.409 Y57.181 E142.14124
G1 X73.476 Y55.66 E142.19187
G1 X73.296 Y54.144 E142.24265
G1 X72.861 Y52.661 E142.29405
G1 X72.2 Y51.298 E142.34444
G1 X71.301 Y50.035 E142.396
G1 X70.243 Y48.979 E142.44572
G1 X68.968 Y48.074 E142.49772
G1 X67.61 Y47.413 E142.54795
G1 X66.144 Y46.975 E142.59884
G1 X64.617 Y46.795 E142.64998
G0 F6000 X64.8 Y46.332
G1 F1200 X64.8 Y30.445 E143.17839
G0 F6000 X64.845 Y30.4
G1 F1200 X67.272 Y30.4 E143.25911
G0 F6000 X67.2 Y30.329
G1 F1200 X67.2 Y46.789 E143.80657
G0 F6000 X66.4 Y46.55
G1 F1200 X66.4 Y29.529 E144.37269
G0 F6000 X66.472 Y29.6
G1 F1200 X65.645 Y29.6 E144.4002
G0 F6000 X65.6 Y29.645
G1 F1200 X65.6 Y46.427 E144.95837
G0 F6000 X65.379 Y46.4
G1 F1200 X83.272 Y46.4 E145.55349
G0 F6000 X83.2 Y46.329
G1 F1200 X83.2 Y120.071 E148.00616
G0 F6000 X83.128 Y120
G1 F1200 X156.872 Y120 E150.4589
G0 F6000 X156.8 Y119.929
G1 F1200 X156.8 Y193.671 E152.91157
G0 F6000 X156.729 Y193.6
G1 F1200 X181.155 Y193.6 E153.72398
G0 F6000 X180.8 Y193.955
G1 F1200 X180.8 Y143.929 E155.38785
G0 F6000 X180.872 Y144
G1 F1200 X107.128 Y144 E157.84059
G0 F6000 X107.2 Y144.071
G1 F1200 X107.2 Y70.329 E160.29325
G0 F6000 X107.272 Y70.4
G1 F1200 X71.343 Y70.4 E161.48826
G0 F6000 X71.2 Y70.542
G1 F1200 X71.2 Y108.071 E162.73648
G0 F6000 X71.129 Y108
G1 F1200 X144.872 Y108 E165.18918
G0 F6000 X144.8 Y107.929
G1 F1200 X144.8 Y181.671 E167.64185
G0 F6000 X144.729 Y181.6
G1 F1200 X193.155 Y181.6 E169.2525
G0 F6000 X192.8 Y181.955
G1 F1200 X192.8 Y155.929 E170.11813
G0 F6000 X192.872 Y156
G1 F1200 X119.128 Y156 E172.57087
G0 F6000 X119.2 Y156.071
G1 F1200 X119.2 Y82.329 E175.02354
G0 F6000 X119.272 Y82.4
G1 F1200 X45.528 Y82.4 E177.47627
G0 F6000 X45.6 Y82.471
G1 F1200 X45.6 Y69.393 E177.91125
G0 F6000 X45.806 Y69.6
G1 F1200 X32.728 Y69.6 E178.34622
G0 F6000 X32.8 Y69.671
G1 F1200 X32.8 Y62.445 E178.58656
G0 F6000 X32.844 Y62.4
G1 F1200 X38.814 Y62.4 E178.78512
G0 F6000 X39.2 Y62.993
G1 F1200 X39.2 Y76.071 E179.2201
G0 F6000 X39.128 Y76
G1 F1200 X52.206 Y76 E179.65508
G0 F6000 X52 Y75.793
G1 F1200 X52 Y88.871 E180.09005
G0 F6000 X51.928 Y88.8
G1 F1200 X125.672 Y88.8 E182.54279
G0 F6000 X125.6 Y88.729
G1 F1200 X125.6 Y162.471 E184.99546
G0 F6000 X125.528 Y162.4
